iphone/Maps/Images.xcassets/Interface/Search/Categories/parking.imageset/parking_light.svg

<svg height="28" viewBox="0 0 28 28" width="28" xmlns="http://www.w3.org/2000/svg"><g fill="none" opacity=".898664"><circle cx="14" cy="14" fill="#2e89b0" fill-rule="evenodd" r="14"/><path d="m9.35 22.3h3.8340042v-5.920267h1.2647125c2.0466166 0 3.644925-.4564291 4.7451875-1.3899732 1.1239333-.9449405 1.6560958-2.3210274 1.6560958-4.097232 0-1.71922277-.4977967-3.02999607-1.5388917-3.89525776-1.0529208-.87666763-2.6016833-1.29727004-4.6128416-1.29727004l-5.3479792.0002873zm3.8340042-13.69574699h1.372525c.94645 0 1.6210208.18237054 2.0588833.56946382.4495542.39848964.6730279.99004707.6730279 1.82121547 0 .8083565-.2365741 1.4341221-.7807925 1.8667051-.5323733.4212536-1.34895.6713511-2.4256375.6713511h-.8980062z" fill="#fff"/></g></svg>

<?xml version="1.0" encoding="UTF-8"?>
<svg width="28px" height="28px" viewBox="0 0 28 28" version="1.1" xmlns="http://www.w3.org/2000/svg" xmlns:xlink="http://www.w3.org/1999/xlink">
    <title>parking_light</title>
    <g id="parking_light" stroke="none" fill="none" fill-rule="evenodd">
        <path d="M14,0 C21.7319865,0 28,6.2680135 28,14 C28,21.7319865 21.7319865,28 14,28 C6.2680135,28 0,21.7319865 0,14 C0,6.2680135 6.2680135,0 14,0 Z M14.6982667,5.7 L9.3502875,5.7002873 L9.35,22.3 L13.1840042,22.3 L13.1840042,16.379733 L14.4487167,16.379733 C16.4953333,16.379733 18.0936417,15.9233039 19.1939042,14.9897598 C20.3178375,14.0448193 20.85,12.6687324 20.85,10.8925278 C20.85,9.17330503 20.3522033,7.86253173 19.3111083,6.99727004 C18.2581875,6.12060241 16.709425,5.7 14.6982667,5.7 Z M14.5565292,8.60425301 C15.5029792,8.60425301 16.17755,8.78662355 16.6154125,9.17371683 C17.0649667,9.57220647 17.2884404,10.1637639 17.2884404,10.9949323 C17.2884404,11.8032888 17.0518663,12.4290544 16.5076479,12.8616374 C15.9752746,13.282891 15.1586979,13.5329885 14.0820104,13.5329885 L13.1840042,13.5329885 L13.1840042,8.60425301 L14.5565292,8.60425301 Z" id="Shape" fill="#2E89B0"></path>
    </g>
</svg>
